X:205
T:Momirul
M:2/4
O:S.E.Europe
Q:1/4=126
Z:Richard Robinson 
%%TUNEURL: http://www.leeds.ac.uk/music/Info/RRTuneBk/gettune/0000067f.html
%%ID:0000067f
K:C
{^c}"G"d4 GABG | ~c4 B^AB2    | \
defe gfed      | ~c4 B^AB2    | \
{^c}d4 GABG    | ~c4 B2G/^F/G | \
"D"ABAG D2G/^F/G | ABAG D2G/^F/G |
ABAG D2G/^F/G | A4 d4 |\
ABAG D2G/^F/G | ABAG D2G/^F/G |\
ABAG D2G/^F/G | A4A4|]
